X:1
T:No tienen vado mis
T:Juan del Encina
T:Source : Cancionero de Uppsala : Villancicos---Venetia ---G.Scotto---1556. Editor : André Vierendeels (06/04/17).
T:Notes : Original clefs : C2, C2 Original note values have been halved Editorial accidentals above tha staff Square bracket indicate ligature
T:No tienen vado mis
T:©
T:©
C:Juan del Encina
Z:©
%%score [ 1 2 ]
L:1/8
Q:1/4=120
M:4/4
K:C
V:1 treble nm="Alto 1" snm="A 1"
V:2 treble nm="Alto 2" snm="A 2"
V:1
 A4 A4 | G4 A4 | F2 D2 F4 | E2 C4 D2- | D2 C2 B,4 | A,2 A4 G2 | F4 E2 A2- | A2 G2 F2 E2 | %8
w: No tie-|nen va-|do mis ma-|les que ha-||re, que ha-||* * re, que|
w: Mi des-|can- *|so, es des-|seal- los por-|* que- *|se, por- que-||* * se, por-|
 A,B,CD E2 C2 | B,4 A,4 | z2 A4 A2 | G2 E2 F2 D2- | DCA,B, CD E2 | A,2 B,2 C2 D2- | D2 C2 D4- | %15
w: ha- * * * * *|* re,|que pas-|sar no- los po-|||* * dre,|
w: que- * * * * *|* se,||||||
 D4 z4 | z2 A4 A2 | G2 E2 F2 G2 | E2 D2 E4 | D8 || z4 A4 | A2 A2 F2 E2 | G2 A4 G2 | A4 z2 A2- | %24
w: _|que pas-|sar no- los po-||dre.|Es|in- pos- si- ble|pas- sa- *|los, ma-|
w: |||||Pues|pa- ra te- ner|Re- me- di-|o, el|
 A2 A2 G2 E2 | F2 E3 D D2- |"^#" D2 C2 D4- | D8 |] %28
w: * les que- no|tie- nen _ me-|* di- o.|_|
w: _ Re- me- dio|es no _ cu-|* ral- los.|_|
V:2
 z8 | z8 | A4 A4 | G4 A4 | F4 D4 | F4 E4 | z2 D4 C2 | B,4 A,3 B, | CDEF G2 A2- | A2 G2 A4- | %10
w: ||No tie-|nen va-|do mis|ma- les|que ha-||* * * * re, que|_ ha- re,|
w: ||||||||||
 A4 z4 | z4 z2 A2- | A2 A2 G2 E2 | F2 G2 E2 D2 | E4 D2 A2- | A2 A2 G2 E2 | F2 D3 C A,B, | %17
w: _|que|_ pas- sar no-|los po- * *|* dre, que|_ pas- sar no-|los po- * * *|
w: |||||||
 CD E2 A,2 B,2 |"^#" C2 D4 C2 | D8 || A4 A2 A2 | F3 E D2 C2 | B,2 A,2 B,4 | A,2 D4 D2 | %24
w: ||dre.|Es in- pos-|si- ble pas- sa-||* los, ma-|
w: |||Pues pa- ra|te- ner Re- me-||di- o, el|
 C2 A,2 B,2 C2 | D2 C2 D4 | E4 D4- | D8 |] %28
w: les que no tie-|nen me- di-|* o.|_|
w: Re- me- dio es|no cu- ral-|* los.|_|

